packages/astro-components-stencil/src/icons/fiber-pin.svg

<svg xmlns="http://www.w3.org/2000/svg" viewBox="0 0 24 24"><g xmlns="http://www.w3.org/2000/svg" id="fiber-pin" fill-rule="nonzero">
            <path d="M20 4H4c-1.11 0-1.99.89-1.99 2L2 18c0 1.11.89 2 2 2h16c1.11 0 2-.89 2-2V6c0-1.11-.89-2-2-2zM9 11.5c0 .83-.67 1.5-1.5 1.5h-2v1.25c0 .41-.34.75-.75.75S4 14.66 4 14.25V10c0-.55.45-1 1-1h2.5c.83 0 1.5.67 1.5 1.5v1zm3.5 2.75c0 .41-.34.75-.75.75s-.75-.34-.75-.75v-4.5c0-.41.34-.75.75-.75s.75.34.75.75v4.5zm7.5-.04a.787.787 0 01-1.43.46l-2.31-3.17v2.88c0 .34-.28.62-.62.62h-.01c-.35 0-.63-.28-.63-.62V9.83c0-.46.37-.83.83-.83.27 0 .52.13.67.35l2.25 3.15V9.62c0-.34.28-.62.62-.62h.01c.34 0 .62.28.62.62v4.59zM5.5 10.5h2v1h-2v-1z"/>
        </g></svg>

<svg width="24" height="24" viewBox="0 0 24 24" fill="none" xmlns="http://www.w3.org/2000/svg">
<path fill-rule="evenodd" clip-rule="evenodd" d="M20 4H4C2.89 4 2.01 4.89 2.01 6L2 18C2 19.11 2.89 20 4 20H20C21.11 20 22 19.11 22 18V6C22 4.89 21.11 4 20 4ZM9 11.5C9 12.33 8.33 13 7.5 13H5.5V14.25C5.5 14.66 5.16 15 4.75 15C4.34 15 4 14.66 4 14.25V10C4 9.45 4.45 9 5 9H7.5C8.33 9 9 9.67 9 10.5V11.5ZM11.75 15C12.16 15 12.5 14.66 12.5 14.25V9.75C12.5 9.34 12.16 9 11.75 9C11.34 9 11 9.34 11 9.75V14.25C11 14.66 11.34 15 11.75 15ZM20 14.21C20 14.65 19.65 15 19.21 15C18.96 15 18.72 14.88 18.57 14.67L16.26 11.5V14.38C16.26 14.72 15.98 15 15.64 15H15.63C15.28 15 15 14.72 15 14.38V9.83C15 9.37 15.37 9 15.83 9C16.1 9 16.35 9.13 16.5 9.35L18.75 12.5V9.62C18.75 9.28 19.03 9 19.37 9H19.38C19.72 9 20 9.28 20 9.62V14.21ZM7.5 10.5H5.5V11.5H7.5V10.5Z" fill="black"/>
</svg>
